images/50394837.svg

<?xml version="1.0" encoding="UTF-8"?>
<svg xmlns="http://www.w3.org/2000/svg" xmlns:xlink="http://www.w3.org/1999/xlink" width="300pt" height="300pt" viewBox="0 0 300 300" version="1.1">
<defs>
<g>
<symbol overflow="visible" id="glyph0-0">
<path style="stroke:none;" d="M 0.453125 1.59375 L 0.453125 -6.34375 L 4.953125 -6.34375 L 4.953125 1.59375 Z M 0.953125 1.09375 L 4.453125 1.09375 L 4.453125 -5.84375 L 0.953125 -5.84375 Z M 0.953125 1.09375 "/>
</symbol>
<symbol overflow="visible" id="glyph0-1">
<path style="stroke:none;" d="M 0.890625 -6.5625 L 4.65625 -6.5625 L 4.65625 -5.8125 L 1.765625 -5.8125 L 1.765625 -3.875 L 4.375 -3.875 L 4.375 -3.140625 L 1.765625 -3.140625 L 1.765625 0 L 0.890625 0 Z M 0.890625 -6.5625 "/>
</symbol>
<symbol overflow="visible" id="glyph0-2">
<path style="stroke:none;" d="M 0.890625 -6.5625 L 2.078125 -6.5625 L 4.984375 -1.078125 L 4.984375 -6.5625 L 5.84375 -6.5625 L 5.84375 0 L 4.65625 0 L 1.75 -5.484375 L 1.75 0 L 0.890625 0 Z M 0.890625 -6.5625 "/>
</symbol>
<symbol overflow="visible" id="glyph0-3">
<path style="stroke:none;" d="M 3.546875 -5.953125 C 2.898438 -5.953125 2.382812 -5.710938 2 -5.234375 C 1.625 -4.753906 1.4375 -4.101562 1.4375 -3.28125 C 1.4375 -2.445312 1.625 -1.789062 2 -1.3125 C 2.382812 -0.832031 2.898438 -0.59375 3.546875 -0.59375 C 4.191406 -0.59375 4.703125 -0.832031 5.078125 -1.3125 C 5.453125 -1.789062 5.640625 -2.445312 5.640625 -3.28125 C 5.640625 -4.101562 5.453125 -4.753906 5.078125 -5.234375 C 4.703125 -5.710938 4.191406 -5.953125 3.546875 -5.953125 Z M 3.546875 -6.6875 C 4.460938 -6.6875 5.195312 -6.375 5.75 -5.75 C 6.300781 -5.132812 6.578125 -4.3125 6.578125 -3.28125 C 6.578125 -2.238281 6.300781 -1.410156 5.75 -0.796875 C 5.195312 -0.179688 4.460938 0.125 3.546875 0.125 C 2.617188 0.125 1.878906 -0.179688 1.328125 -0.796875 C 0.773438 -1.410156 0.5 -2.238281 0.5 -3.28125 C 0.5 -4.3125 0.773438 -5.132812 1.328125 -5.75 C 1.878906 -6.375 2.617188 -6.6875 3.546875 -6.6875 Z M 3.546875 -6.6875 "/>
</symbol>
<symbol overflow="visible" id="glyph0-4">
<path style="stroke:none;" d="M 0.890625 -6.5625 L 1.765625 -6.5625 L 1.765625 -3.875 L 5 -3.875 L 5 -6.5625 L 5.890625 -6.5625 L 5.890625 0 L 5 0 L 5 -3.125 L 1.765625 -3.125 L 1.765625 0 L 0.890625 0 Z M 0.890625 -6.5625 "/>
</symbol>
</g>
</defs>
<g id="surface25853">
<rect x="0" y="0" width="300" height="300" style="fill:rgb(100%,100%,100%);fill-opacity:1;stroke:none;"/>
<path style="fill:none;stroke-width:1.2;stroke-linecap:butt;stroke-linejoin:miter;stroke:rgb(20%,80%,80%);stroke-opacity:1;stroke-miterlimit:10;" d="M 80.777344 190.519531 L 78.933594 180.566406 "/>
<path style="fill:none;stroke-width:1.2;stroke-linecap:butt;stroke-linejoin:miter;stroke:rgb(0%,0%,0%);stroke-opacity:1;stroke-miterlimit:10;" d="M 78.933594 180.566406 L 77.09375 170.613281 "/>
<path style=" stroke:none;fill-rule:nonzero;fill:rgb(100%,100%,100%);fill-opacity:1;" d="M 77.777344 185.019531 L 83.777344 185.019531 L 83.777344 196.019531 L 77.777344 196.019531 Z M 77.777344 185.019531 "/>
<g style="fill:rgb(20%,80%,80%);fill-opacity:1;">
  <use xlink:href="#glyph0-1" x="77.777344" y="193.682617"/>
</g>
<path style="fill:none;stroke-width:1.2;stroke-linecap:butt;stroke-linejoin:miter;stroke:rgb(0%,0%,0%);stroke-opacity:1;stroke-miterlimit:10;" d="M 77.09375 170.613281 L 58.011719 163.847656 "/>
<path style="fill:none;stroke-width:1.2;stroke-linecap:butt;stroke-linejoin:miter;stroke:rgb(0%,0%,0%);stroke-opacity:1;stroke-miterlimit:10;" d="M 76.777344 165.445312 L 61.511719 160.035156 "/>
<path style="fill:none;stroke-width:1.2;stroke-linecap:butt;stroke-linejoin:miter;stroke:rgb(0%,0%,0%);stroke-opacity:1;stroke-miterlimit:10;" d="M 92.492188 157.46875 L 77.09375 170.613281 "/>
<path style="fill:none;stroke-width:1.2;stroke-linecap:butt;stroke-linejoin:miter;stroke:rgb(0%,0%,0%);stroke-opacity:1;stroke-miterlimit:10;" d="M 58.011719 163.847656 L 54.332031 143.945312 "/>
<path style="fill:none;stroke-width:1.2;stroke-linecap:butt;stroke-linejoin:miter;stroke:rgb(0%,0%,0%);stroke-opacity:1;stroke-miterlimit:10;" d="M 54.332031 143.945312 L 44.789062 140.5625 "/>
<path style="fill:none;stroke-width:1.2;stroke-linecap:butt;stroke-linejoin:miter;stroke:rgb(20%,80%,80%);stroke-opacity:1;stroke-miterlimit:10;" d="M 44.789062 140.5625 L 35.25 137.179688 "/>
<path style="fill:none;stroke-width:1.2;stroke-linecap:butt;stroke-linejoin:miter;stroke:rgb(0%,0%,0%);stroke-opacity:1;stroke-miterlimit:10;" d="M 54.332031 143.945312 L 69.726562 130.800781 "/>
<path style="fill:none;stroke-width:1.2;stroke-linecap:butt;stroke-linejoin:miter;stroke:rgb(0%,0%,0%);stroke-opacity:1;stroke-miterlimit:10;" d="M 58.960938 146.253906 L 71.28125 135.738281 "/>
<path style=" stroke:none;fill-rule:nonzero;fill:rgb(100%,100%,100%);fill-opacity:1;" d="M 29.25 131.679688 L 35.25 131.679688 L 35.25 142.679688 L 29.25 142.679688 Z M 29.25 131.679688 "/>
<g style="fill:rgb(20%,80%,80%);fill-opacity:1;">
  <use xlink:href="#glyph0-1" x="29.25" y="140.342773"/>
</g>
<path style="fill:none;stroke-width:1.2;stroke-linecap:butt;stroke-linejoin:miter;stroke:rgb(0%,0%,0%);stroke-opacity:1;stroke-miterlimit:10;" d="M 69.726562 130.800781 L 88.808594 137.566406 "/>
<path style="fill:none;stroke-width:1.2;stroke-linecap:butt;stroke-linejoin:miter;stroke:rgb(0%,0%,0%);stroke-opacity:1;stroke-miterlimit:10;" d="M 88.808594 137.566406 L 92.492188 157.46875 "/>
<path style="fill:none;stroke-width:1.2;stroke-linecap:butt;stroke-linejoin:miter;stroke:rgb(0%,0%,0%);stroke-opacity:1;stroke-miterlimit:10;" d="M 84.492188 140.421875 L 87.4375 156.347656 "/>
<path style="fill:none;stroke-width:1.2;stroke-linecap:butt;stroke-linejoin:miter;stroke:rgb(0%,0%,0%);stroke-opacity:1;stroke-miterlimit:10;" d="M 92.492188 157.46875 L 111.570312 164.234375 "/>
<path style="fill:none;stroke-width:1.2;stroke-linecap:butt;stroke-linejoin:miter;stroke:rgb(0%,0%,0%);stroke-opacity:1;stroke-miterlimit:10;" d="M 111.570312 164.234375 L 119.914062 158.503906 "/>
<path style="fill:none;stroke-width:1.2;stroke-linecap:butt;stroke-linejoin:miter;stroke:rgb(0%,0%,100%);stroke-opacity:1;stroke-miterlimit:10;" d="M 119.914062 158.503906 L 128.257812 152.773438 "/>
<path style="fill:none;stroke-width:1.2;stroke-linecap:butt;stroke-linejoin:miter;stroke:rgb(0%,0%,100%);stroke-opacity:1;stroke-miterlimit:10;" d="M 117.3125 183.644531 L 114.441406 173.941406 "/>
<path style="fill:none;stroke-width:1.2;stroke-linecap:butt;stroke-linejoin:miter;stroke:rgb(0%,0%,0%);stroke-opacity:1;stroke-miterlimit:10;" d="M 114.441406 173.941406 L 111.570312 164.234375 "/>
<path style="fill:none;stroke-width:1.2;stroke-linecap:butt;stroke-linejoin:miter;stroke:rgb(0%,0%,100%);stroke-opacity:1;stroke-miterlimit:10;" d="M 121.308594 180.351562 L 119.011719 172.589844 "/>
<path style="fill:none;stroke-width:1.2;stroke-linecap:butt;stroke-linejoin:miter;stroke:rgb(0%,0%,0%);stroke-opacity:1;stroke-miterlimit:10;" d="M 119.011719 172.589844 L 116.710938 164.824219 "/>
<path style="fill:none;stroke-width:1.2;stroke-linecap:butt;stroke-linejoin:miter;stroke:rgb(0%,0%,100%);stroke-opacity:1;stroke-miterlimit:10;" d="M 128.257812 152.773438 L 136.285156 158.9375 "/>
<path style="fill:none;stroke-width:1.2;stroke-linecap:butt;stroke-linejoin:miter;stroke:rgb(0%,0%,0%);stroke-opacity:1;stroke-miterlimit:10;" d="M 136.285156 158.9375 L 144.3125 165.101562 "/>
<path style="fill:none;stroke-width:1.2;stroke-linecap:butt;stroke-linejoin:miter;stroke:rgb(0%,0%,0%);stroke-opacity:1;stroke-miterlimit:10;" d="M 130.90625 132.703125 L 129.582031 142.738281 "/>
<path style="fill:none;stroke-width:1.2;stroke-linecap:butt;stroke-linejoin:miter;stroke:rgb(0%,0%,100%);stroke-opacity:1;stroke-miterlimit:10;" d="M 129.582031 142.738281 L 128.257812 152.773438 "/>
<path style=" stroke:none;fill-rule:nonzero;fill:rgb(100%,100%,100%);fill-opacity:1;" d="M 125.257812 147.273438 L 132.257812 147.273438 L 132.257812 158.273438 L 125.257812 158.273438 Z M 125.257812 147.273438 "/>
<g style="fill:rgb(0%,0%,100%);fill-opacity:1;">
  <use xlink:href="#glyph0-2" x="125.257812" y="155.936523"/>
</g>
<path style="fill:none;stroke-width:1.2;stroke-linecap:butt;stroke-linejoin:miter;stroke:rgb(0%,0%,0%);stroke-opacity:1;stroke-miterlimit:10;" d="M 144.3125 165.101562 L 163.019531 157.363281 "/>
<path style="fill:none;stroke-width:1.2;stroke-linecap:butt;stroke-linejoin:miter;stroke:rgb(0%,0%,0%);stroke-opacity:1;stroke-miterlimit:10;" d="M 144.3125 165.101562 L 137.550781 184.183594 "/>
<path style="fill:none;stroke-width:1.2;stroke-linecap:butt;stroke-linejoin:miter;stroke:rgb(0%,0%,0%);stroke-opacity:1;stroke-miterlimit:10;" d="M 139.148438 165.417969 L 133.738281 180.683594 "/>
<path style="fill:none;stroke-width:1.2;stroke-linecap:butt;stroke-linejoin:miter;stroke:rgb(0%,0%,0%);stroke-opacity:1;stroke-miterlimit:10;" d="M 163.019531 157.363281 L 164.34375 147.328125 "/>
<path style="fill:none;stroke-width:1.2;stroke-linecap:butt;stroke-linejoin:miter;stroke:rgb(0%,0%,100%);stroke-opacity:1;stroke-miterlimit:10;" d="M 164.34375 147.328125 L 165.667969 137.292969 "/>
<path style="fill:none;stroke-width:1.2;stroke-linecap:butt;stroke-linejoin:miter;stroke:rgb(0%,0%,100%);stroke-opacity:1;stroke-miterlimit:10;" d="M 165.667969 137.292969 L 157.640625 131.128906 "/>
<path style="fill:none;stroke-width:1.2;stroke-linecap:butt;stroke-linejoin:miter;stroke:rgb(0%,0%,0%);stroke-opacity:1;stroke-miterlimit:10;" d="M 157.640625 131.128906 L 149.613281 124.964844 "/>
<path style="fill:none;stroke-width:1.2;stroke-linecap:butt;stroke-linejoin:miter;stroke:rgb(0%,0%,100%);stroke-opacity:1;stroke-miterlimit:10;" d="M 165.667969 137.292969 L 175.019531 133.421875 "/>
<path style="fill:none;stroke-width:1.2;stroke-linecap:butt;stroke-linejoin:miter;stroke:rgb(0%,0%,0%);stroke-opacity:1;stroke-miterlimit:10;" d="M 175.019531 133.421875 L 184.371094 129.550781 "/>
<path style=" stroke:none;fill-rule:nonzero;fill:rgb(100%,100%,100%);fill-opacity:1;" d="M 162.667969 131.792969 L 169.667969 131.792969 L 169.667969 142.792969 L 162.667969 142.792969 Z M 162.667969 131.792969 "/>
<g style="fill:rgb(0%,0%,100%);fill-opacity:1;">
  <use xlink:href="#glyph0-2" x="162.667969" y="140.456055"/>
</g>
<path style="fill:none;stroke-width:1.2;stroke-linecap:butt;stroke-linejoin:miter;stroke:rgb(0%,0%,0%);stroke-opacity:1;stroke-miterlimit:10;" d="M 149.613281 124.964844 L 130.90625 132.703125 "/>
<path style="fill:none;stroke-width:1.2;stroke-linecap:butt;stroke-linejoin:miter;stroke:rgb(0%,0%,0%);stroke-opacity:1;stroke-miterlimit:10;" d="M 186.734375 129.863281 L 188.058594 119.828125 "/>
<path style="fill:none;stroke-width:1.2;stroke-linecap:butt;stroke-linejoin:miter;stroke:rgb(100%,0%,0%);stroke-opacity:1;stroke-miterlimit:10;" d="M 188.058594 119.828125 L 189.382812 109.792969 "/>
<path style="fill:none;stroke-width:1.2;stroke-linecap:butt;stroke-linejoin:miter;stroke:rgb(0%,0%,0%);stroke-opacity:1;stroke-miterlimit:10;" d="M 182.011719 129.238281 L 183.335938 119.203125 "/>
<path style="fill:none;stroke-width:1.2;stroke-linecap:butt;stroke-linejoin:miter;stroke:rgb(100%,0%,0%);stroke-opacity:1;stroke-miterlimit:10;" d="M 183.335938 119.203125 L 184.660156 109.171875 "/>
<path style="fill:none;stroke-width:1.2;stroke-linecap:butt;stroke-linejoin:miter;stroke:rgb(0%,0%,0%);stroke-opacity:1;stroke-miterlimit:10;" d="M 184.371094 129.550781 L 200.429688 141.878906 "/>
<path style=" stroke:none;fill-rule:nonzero;fill:rgb(100%,100%,100%);fill-opacity:1;" d="M 183.023438 103.980469 L 191.023438 103.980469 L 191.023438 114.980469 L 183.023438 114.980469 Z M 183.023438 103.980469 "/>
<g style="fill:rgb(100%,0%,0%);fill-opacity:1;">
  <use xlink:href="#glyph0-3" x="183.023438" y="112.643555"/>
</g>
<path style="fill:none;stroke-width:1.2;stroke-linecap:butt;stroke-linejoin:miter;stroke:rgb(0%,0%,0%);stroke-opacity:1;stroke-miterlimit:10;" d="M 200.429688 141.878906 L 219.132812 134.140625 "/>
<path style="fill:none;stroke-width:1.2;stroke-linecap:butt;stroke-linejoin:miter;stroke:rgb(0%,0%,0%);stroke-opacity:1;stroke-miterlimit:10;" d="M 204.121094 145.507812 L 219.085938 139.3125 "/>
<path style="fill:none;stroke-width:1.2;stroke-linecap:butt;stroke-linejoin:miter;stroke:rgb(0%,0%,0%);stroke-opacity:1;stroke-miterlimit:10;" d="M 197.78125 161.949219 L 200.429688 141.878906 "/>
<path style="fill:none;stroke-width:1.2;stroke-linecap:butt;stroke-linejoin:miter;stroke:rgb(0%,0%,0%);stroke-opacity:1;stroke-miterlimit:10;" d="M 219.132812 134.140625 L 235.191406 146.46875 "/>
<path style="fill:none;stroke-width:1.2;stroke-linecap:butt;stroke-linejoin:miter;stroke:rgb(0%,0%,0%);stroke-opacity:1;stroke-miterlimit:10;" d="M 235.191406 146.46875 L 255.097656 142.785156 "/>
<path style="fill:none;stroke-width:1.2;stroke-linecap:butt;stroke-linejoin:miter;stroke:rgb(0%,0%,0%);stroke-opacity:1;stroke-miterlimit:10;" d="M 232.542969 166.535156 L 235.191406 146.46875 "/>
<path style="fill:none;stroke-width:1.2;stroke-linecap:butt;stroke-linejoin:miter;stroke:rgb(0%,0%,0%);stroke-opacity:1;stroke-miterlimit:10;" d="M 228.085938 163.90625 L 230.203125 147.851562 "/>
<path style="fill:none;stroke-width:1.2;stroke-linecap:butt;stroke-linejoin:miter;stroke:rgb(0%,0%,0%);stroke-opacity:1;stroke-miterlimit:10;" d="M 255.097656 142.785156 L 264.75 160.578125 "/>
<path style="fill:none;stroke-width:1.2;stroke-linecap:butt;stroke-linejoin:miter;stroke:rgb(0%,0%,0%);stroke-opacity:1;stroke-miterlimit:10;" d="M 251.875 146.835938 L 259.597656 161.070312 "/>
<path style="fill:none;stroke-width:1.2;stroke-linecap:butt;stroke-linejoin:miter;stroke:rgb(0%,0%,0%);stroke-opacity:1;stroke-miterlimit:10;" d="M 264.75 160.578125 L 257.78125 167.917969 "/>
<path style="fill:none;stroke-width:1.2;stroke-linecap:butt;stroke-linejoin:miter;stroke:rgb(0%,0%,100%);stroke-opacity:1;stroke-miterlimit:10;" d="M 257.78125 167.917969 L 250.808594 175.257812 "/>
<path style="fill:none;stroke-width:1.2;stroke-linecap:butt;stroke-linejoin:miter;stroke:rgb(0%,0%,100%);stroke-opacity:1;stroke-miterlimit:10;" d="M 250.808594 175.257812 L 241.675781 170.898438 "/>
<path style="fill:none;stroke-width:1.2;stroke-linecap:butt;stroke-linejoin:miter;stroke:rgb(0%,0%,0%);stroke-opacity:1;stroke-miterlimit:10;" d="M 241.675781 170.898438 L 232.542969 166.535156 "/>
<path style=" stroke:none;fill-rule:nonzero;fill:rgb(100%,100%,100%);fill-opacity:1;" d="M 243.808594 169.757812 L 257.808594 169.757812 L 257.808594 180.757812 L 243.808594 180.757812 Z M 243.808594 169.757812 "/>
<g style="fill:rgb(0%,0%,100%);fill-opacity:1;">
  <use xlink:href="#glyph0-2" x="243.808594" y="178.420898"/>
  <use xlink:href="#glyph0-4" x="250.786133" y="178.420898"/>
</g>
<path style="fill:none;stroke-width:1.2;stroke-linecap:butt;stroke-linejoin:miter;stroke:rgb(0%,0%,0%);stroke-opacity:1;stroke-miterlimit:10;" d="M 232.542969 166.535156 L 223.1875 170.40625 "/>
<path style="fill:none;stroke-width:1.2;stroke-linecap:butt;stroke-linejoin:miter;stroke:rgb(0%,0%,100%);stroke-opacity:1;stroke-miterlimit:10;" d="M 223.1875 170.40625 L 213.835938 174.277344 "/>
<path style="fill:none;stroke-width:1.2;stroke-linecap:butt;stroke-linejoin:miter;stroke:rgb(0%,0%,100%);stroke-opacity:1;stroke-miterlimit:10;" d="M 213.835938 174.277344 L 205.808594 168.113281 "/>
<path style="fill:none;stroke-width:1.2;stroke-linecap:butt;stroke-linejoin:miter;stroke:rgb(0%,0%,0%);stroke-opacity:1;stroke-miterlimit:10;" d="M 205.808594 168.113281 L 197.78125 161.949219 "/>
<path style="fill:none;stroke-width:1.2;stroke-linecap:butt;stroke-linejoin:miter;stroke:rgb(0%,0%,100%);stroke-opacity:1;stroke-miterlimit:10;" d="M 215.132812 169.265625 L 208.710938 164.335938 "/>
<path style="fill:none;stroke-width:1.2;stroke-linecap:butt;stroke-linejoin:miter;stroke:rgb(0%,0%,0%);stroke-opacity:1;stroke-miterlimit:10;" d="M 208.710938 164.335938 L 202.285156 159.402344 "/>
<path style=" stroke:none;fill-rule:nonzero;fill:rgb(100%,100%,100%);fill-opacity:1;" d="M 210.835938 168.777344 L 217.835938 168.777344 L 217.835938 179.777344 L 210.835938 179.777344 Z M 210.835938 168.777344 "/>
<g style="fill:rgb(0%,0%,100%);fill-opacity:1;">
  <use xlink:href="#glyph0-2" x="210.835938" y="177.44043"/>
</g>
<path style="fill:none;stroke-width:1.2;stroke-linecap:butt;stroke-linejoin:miter;stroke:rgb(0%,0%,0%);stroke-opacity:1;stroke-miterlimit:10;" d="M 197.78125 161.949219 L 188.429688 165.820312 "/>
<path style="fill:none;stroke-width:1.2;stroke-linecap:butt;stroke-linejoin:miter;stroke:rgb(100%,0%,0%);stroke-opacity:1;stroke-miterlimit:10;" d="M 188.429688 165.820312 L 179.074219 169.691406 "/>
<path style="fill:none;stroke-width:1.2;stroke-linecap:butt;stroke-linejoin:miter;stroke:rgb(100%,0%,0%);stroke-opacity:1;stroke-miterlimit:10;" d="M 179.074219 169.691406 L 177.75 179.726562 "/>
<path style="fill:none;stroke-width:1.2;stroke-linecap:butt;stroke-linejoin:miter;stroke:rgb(0%,0%,0%);stroke-opacity:1;stroke-miterlimit:10;" d="M 177.75 179.726562 L 176.425781 189.757812 "/>
<path style=" stroke:none;fill-rule:nonzero;fill:rgb(100%,100%,100%);fill-opacity:1;" d="M 175.074219 164.191406 L 183.074219 164.191406 L 183.074219 175.191406 L 175.074219 175.191406 Z M 175.074219 164.191406 "/>
<g style="fill:rgb(100%,0%,0%);fill-opacity:1;">
  <use xlink:href="#glyph0-3" x="175.074219" y="172.854492"/>
</g>
<path style="fill:none;stroke-width:1.2;stroke-linecap:butt;stroke-linejoin:miter;stroke:rgb(0%,0%,0%);stroke-opacity:1;stroke-miterlimit:10;" d="M 137.550781 184.183594 L 127.433594 183.914062 "/>
<path style="fill:none;stroke-width:1.2;stroke-linecap:butt;stroke-linejoin:miter;stroke:rgb(0%,0%,100%);stroke-opacity:1;stroke-miterlimit:10;" d="M 127.433594 183.914062 L 117.3125 183.644531 "/>
<path style=" stroke:none;fill-rule:nonzero;fill:rgb(100%,100%,100%);fill-opacity:1;" d="M 114.3125 178.144531 L 121.3125 178.144531 L 121.3125 189.144531 L 114.3125 189.144531 Z M 114.3125 178.144531 "/>
<g style="fill:rgb(0%,0%,100%);fill-opacity:1;">
  <use xlink:href="#glyph0-2" x="114.3125" y="186.807617"/>
</g>
</g>
</svg>

<svg xmlns="http://www.w3.org/2000/svg" xmlns:xlink="http://www.w3.org/1999/xlink" width="300pt" height="300pt" viewBox="0 0 300 300"><defs><symbol overflow="visible"><path d="M.453 1.594v-7.938h4.5v7.938zm.5-.5h3.5v-6.938h-3.5zm0 0"/></symbol><symbol overflow="visible" id="a"><path d="M.89-6.563h3.766v.75h-2.89v1.938h2.61v.734h-2.61V0H.89zm0 0"/></symbol><symbol overflow="visible" id="b"><path d="M.89-6.563H2.08l2.906 5.485v-5.484h.86V0H4.656L1.75-5.484V0H.89zm0 0"/></symbol><symbol overflow="visible" id="c"><path d="M3.547-5.953c-.65 0-1.164.242-1.547.72-.375.48-.563 1.13-.563 1.952 0 .835.188 1.49.563 1.967.383.48.898.72 1.547.72.644 0 1.156-.24 1.53-.72.376-.476.564-1.132.564-1.968 0-.822-.187-1.474-.562-1.954-.375-.477-.887-.72-1.53-.72zm0-.734c.914 0 1.648.312 2.203.937.55.617.828 1.438.828 2.47 0 1.042-.277 1.87-.828 2.483-.555.617-1.29.922-2.203.922-.93 0-1.668-.305-2.22-.922C.774-1.41.5-2.237.5-3.28c0-1.033.273-1.853.828-2.47.55-.625 1.29-.938 2.22-.938zm0 0"/></symbol><symbol overflow="visible" id="d"><path d="M.89-6.563h.876v2.688H5v-2.688h.89V0H5v-3.125H1.766V0H.89zm0 0"/></symbol></defs><g><path fill="#fff" d="M0 0h300v300H0z"/><path d="M80.777 190.52l-1.843-9.954" stroke-width="1.2" stroke="#3cc" stroke-miterlimit="10" fill="none"/><path d="M78.934 180.566l-1.84-9.953" stroke-width="1.2" stroke="#000" stroke-miterlimit="10" fill="none"/><path d="M77.777 185.02h6v11h-6zm0 0" fill="#fff"/><use xlink:href="#a" x="77.777" y="193.683" fill="#3cc"/><path d="M77.094 170.613l-19.082-6.765M76.777 165.445l-15.265-5.41M92.492 157.47l-15.398 13.143M58.012 163.848l-3.68-19.903M54.332 143.945l-9.543-3.382" stroke-width="1.2" stroke="#000" stroke-miterlimit="10" fill="none"/><path d="M44.79 140.563l-9.54-3.383" stroke-width="1.2" stroke="#3cc" stroke-miterlimit="10" fill="none"/><path d="M54.332 143.945L69.727 130.8M58.96 146.254l12.32-10.516" stroke-width="1.2" stroke="#000" stroke-miterlimit="10" fill="none"/><path d="M29.25 131.68h6v11h-6zm0 0" fill="#fff"/><use xlink:href="#a" x="29.25" y="140.343" fill="#3cc"/><path d="M69.727 130.8l19.082 6.766M88.81 137.566l3.682 19.903M84.492 140.422l2.945 15.926M92.492 157.47l19.078 6.764M111.57 164.234l8.344-5.73" stroke-width="1.2" stroke="#000" stroke-miterlimit="10" fill="none"/><path d="M119.914 158.504l8.344-5.73M117.313 183.645l-2.872-9.704" stroke-width="1.2" stroke="#00f" stroke-miterlimit="10" fill="none"/><path d="M114.44 173.94l-2.87-9.706" stroke-width="1.2" stroke="#000" stroke-miterlimit="10" fill="none"/><path d="M121.31 180.352l-2.298-7.762" stroke-width="1.2" stroke="#00f" stroke-miterlimit="10" fill="none"/><path d="M119.012 172.59l-2.3-7.766" stroke-width="1.2" stroke="#000" stroke-miterlimit="10" fill="none"/><path d="M128.258 152.773l8.027 6.165" stroke-width="1.2" stroke="#00f" stroke-miterlimit="10" fill="none"/><path d="M136.285 158.938l8.028 6.164M130.906 132.703l-1.324 10.035" stroke-width="1.2" stroke="#000" stroke-miterlimit="10" fill="none"/><path d="M129.582 142.738l-1.324 10.035" stroke-width="1.2" stroke="#00f" stroke-miterlimit="10" fill="none"/><path d="M125.258 147.273h7v11h-7zm0 0" fill="#fff"/><use xlink:href="#b" x="125.258" y="155.937" fill="#00f"/><path d="M144.313 165.102l18.707-7.74M144.313 165.102l-6.762 19.082M139.148 165.418l-5.41 15.266M163.02 157.363l1.324-10.035" stroke-width="1.2" stroke="#000" stroke-miterlimit="10" fill="none"/><path d="M164.344 147.328l1.324-10.035M165.668 137.293l-8.027-6.164" stroke-width="1.2" stroke="#00f" stroke-miterlimit="10" fill="none"/><path d="M157.64 131.13l-8.027-6.165" stroke-width="1.2" stroke="#000" stroke-miterlimit="10" fill="none"/><path d="M165.668 137.293l9.352-3.87" stroke-width="1.2" stroke="#00f" stroke-miterlimit="10" fill="none"/><path d="M175.02 133.422l9.35-3.87" stroke-width="1.2" stroke="#000" stroke-miterlimit="10" fill="none"/><path d="M162.668 131.793h7v11h-7zm0 0" fill="#fff"/><use xlink:href="#b" x="162.668" y="140.456" fill="#00f"/><path d="M149.613 124.965l-18.707 7.738M186.734 129.863l1.325-10.035" stroke-width="1.2" stroke="#000" stroke-miterlimit="10" fill="none"/><path d="M188.06 119.828l1.323-10.035" stroke-width="1.2" stroke="#f00" stroke-miterlimit="10" fill="none"/><path d="M182.012 129.238l1.324-10.035" stroke-width="1.2" stroke="#000" stroke-miterlimit="10" fill="none"/><path d="M183.336 119.203l1.324-10.03" stroke-width="1.2" stroke="#f00" stroke-miterlimit="10" fill="none"/><path d="M184.37 129.55l16.06 12.33" stroke-width="1.2" stroke="#000" stroke-miterlimit="10" fill="none"/><path d="M183.023 103.98h8v11h-8zm0 0" fill="#fff"/><use xlink:href="#c" x="183.023" y="112.644" fill="#f00"/><path d="M200.43 141.88l18.703-7.74M204.12 145.508l14.966-6.196M197.78 161.95l2.65-20.07M219.133 134.14l16.058 12.33M235.19 146.47l19.908-3.685M232.543 166.535l2.648-20.066M228.086 163.906l2.117-16.054M255.098 142.785l9.652 17.793M251.875 146.836l7.723 14.234M264.75 160.578l-6.97 7.34" stroke-width="1.2" stroke="#000" stroke-miterlimit="10" fill="none"/><path d="M257.78 167.918l-6.97 7.34M250.81 175.258l-9.134-4.36" stroke-width="1.2" stroke="#00f" stroke-miterlimit="10" fill="none"/><path d="M241.676 170.898l-9.133-4.363" stroke-width="1.2" stroke="#000" stroke-miterlimit="10" fill="none"/><path d="M243.81 169.758h14v11h-14zm0 0" fill="#fff"/><g fill="#00f"><use xlink:href="#b" x="243.809" y="178.421"/><use xlink:href="#d" x="250.786" y="178.421"/></g><path d="M232.543 166.535l-9.356 3.87" stroke-width="1.2" stroke="#000" stroke-miterlimit="10" fill="none"/><path d="M223.188 170.406l-9.352 3.87M213.836 174.277l-8.027-6.164" stroke-width="1.2" stroke="#00f" stroke-miterlimit="10" fill="none"/><path d="M205.81 168.113l-8.03-6.164" stroke-width="1.2" stroke="#000" stroke-miterlimit="10" fill="none"/><path d="M215.133 169.266l-6.422-4.93" stroke-width="1.2" stroke="#00f" stroke-miterlimit="10" fill="none"/><path d="M208.71 164.336l-6.425-4.934" stroke-width="1.2" stroke="#000" stroke-miterlimit="10" fill="none"/><path d="M210.836 168.777h7v11h-7zm0 0" fill="#fff"/><use xlink:href="#b" x="210.836" y="177.44" fill="#00f"/><path d="M197.78 161.95l-9.35 3.87" stroke-width="1.2" stroke="#000" stroke-miterlimit="10" fill="none"/><path d="M188.43 165.82l-9.356 3.87M179.074 169.69l-1.324 10.037" stroke-width="1.2" stroke="#f00" stroke-miterlimit="10" fill="none"/><path d="M177.75 179.727l-1.324 10.03" stroke-width="1.2" stroke="#000" stroke-miterlimit="10" fill="none"/><path d="M175.074 164.19h8v11h-8zm0 0" fill="#fff"/><use xlink:href="#c" x="175.074" y="172.854" fill="#f00"/><path d="M137.55 184.184l-10.116-.27" stroke-width="1.2" stroke="#000" stroke-miterlimit="10" fill="none"/><path d="M127.434 183.914l-10.12-.27" stroke-width="1.2" stroke="#00f" stroke-miterlimit="10" fill="none"/><path d="M114.313 178.145h7v11h-7zm0 0" fill="#fff"/><use xlink:href="#b" x="114.313" y="186.808" fill="#00f"/></g></svg>
